public/img/icons/hallitus.svg

<svg width="20" height="20" xmlns="http://www.w3.org/2000/svg" xmlns:xlink="http://www.w3.org/1999/xlink">
    <defs>
        <path d="M5 9H3v7h2V9zm6 0H9v7h2V9zm9 9H0v2h20v-2zm-3-9h-2v7h2V9zm-7-7l6 3H4l6-3zm0-2L0 5v2h20V5L10 0z" id="a"/>
    </defs>
    <use xlink:href="#a"/>
</svg>

<?xml version="1.0" encoding="UTF-8"?>
<svg width="20px" height="20px" viewBox="0 0 20 20" version="1.1" xmlns="http://www.w3.org/2000/svg" xmlns:xlink="http://www.w3.org/1999/xlink">
    <!-- Generator: Sketch 61 (89581) - https://sketch.com -->
    <title>hallitus</title>
    <desc>Created with Sketch.</desc>
    <defs>
        <path d="M5,9 L3,9 L3,16 L5,16 L5,9 Z M11,9 L9,9 L9,16 L11,16 L11,9 Z M20,18 L0,18 L0,20 L20,20 L20,18 Z M17,9 L15,9 L15,16 L17,16 L17,9 Z M10,2 L16,5 L4,5 L10,2 Z M10,0 L0,5 L0,7 L20,7 L20,5 L10,0 Z" id="path-1"></path>
    </defs>
    <g id="hallitus" stroke="none" stroke-width="1" fill="none" fill-rule="evenodd">
        <g id="Ikonit/Hallitus">
            <g>
                <mask id="mask-2" fill="white">
                    <use xlink:href="#path-1"></use>
                </mask>
                <use id="Mask" fill="#000000" fill-rule="nonzero" xlink:href="#path-1"></use>
            </g>
        </g>
    </g>
</svg>
